X: 155
T:Waltz,A Good Tune. JaW.155
M:3/8
L:1/16
Q:50
S:James Winder Ms, Lancashire, 1835-41
R:Waltz
O:England
A:Wyresdale,Lancashire
N:Only 7 bars in C Strain but it sounds ok.
H:1/16
Z:vmp.Chris Partington, Aug 2004
K:Bb
FE|(DF)BFdB|fdbfdf|fedcBA|cBdBFE|!
(DF)BFdB|fdbfdf|fedcBA|B4:|!
|:AB|cAFAcf|cAFAcf|=efgabg|fafd AB|!
cAFAcf|cAFAcf|=efgabg|f4:|!
|:de|g4fd|ABcde=e|fgfede|fdBdfb|!
{^f}g4ec|ABcdeA|B4:|]
